resources/haticons/SVG/soundcloud.svg

<!-- Generated by IcoMoon.io -->
<svg version="1.1" xmlns="http://www.w3.org/2000/svg" width="24" height="24" viewBox="0 0 24 24">
<title>soundcloud</title>
<path d="M20.905 12.052c-0.424 0-0.828 0.082-1.197 0.231-0.246-2.68-2.585-4.783-5.438-4.783-0.698 0-1.375 0.132-1.976 0.355-0.233 0.087-0.295 0.176-0.295 0.35v9.439c0 0.182 0.146 0.334 0.331 0.351 0.008 0.001 8.52 0.005 8.576 0.005 1.709 0 3.093-1.332 3.093-2.974s-1.386-2.974-3.095-2.974zM9.375 18h0.75l0.375-5.255-0.375-5.245h-0.75l-0.375 5.245zM7.125 18h-0.75l-0.375-3.814 0.375-3.686h0.75l0.375 3.75zM3.375 18h0.75l0.375-3-0.375-3h-0.75l-0.375 3zM0.375 16.5h0.75l0.375-1.5-0.375-1.5h-0.75l-0.375 1.5z"></path>
</svg>

<svg xmlns="http://www.w3.org/2000/svg" width="24" height="24"><path d="M20.905 12.052a3.19 3.19 0 0 0-1.197.231C19.462 9.603 17.123 7.5 14.27 7.5a5.72 5.72 0 0 0-1.976.355c-.233.087-.295.176-.295.35v9.439a.36.36 0 0 0 .331.351l8.576.005c1.709 0 3.093-1.332 3.093-2.974s-1.386-2.974-3.095-2.974zM9.375 18h.75l.375-5.255-.375-5.245h-.75L9 12.745zm-2.25 0h-.75L6 14.186l.375-3.686h.75l.375 3.75zm-3.75 0h.75l.375-3-.375-3h-.75L3 15zm-3-1.5h.75L1.5 15l-.375-1.5h-.75L0 15z"/></svg>
